X: 137016
T: HUMORS OF DONNYBROOK
Q: "Irish Jig."
R: Jig.
%R: jig
B: James Kerr "Merry Melodies" v.1 p.37 s.0 #16
Z: 2017 John Chambers <jc:trillian.mit.edu>
M: 6/8
L: 1/8
%%slurgraces yes
%%graceslurs yes
K: A
|:\
v{efg}a2vA AGA | FAA EAA | {efg}a2A AGA | FBA GFE |\
{efg}a2A AGA | FAA EAA | FAA BAB | cAA A3 H:|
|:\
Ace ecA | Ace ecA | Ace ecA | dcd B2z |\
Ace ecA | Ace efg | agf edc | dcd "_D.C."B3 :|

%%sep 1 1 500
%%sep 1 1 500

